icons/svgs/ellipsis-h-solid.svg

<svg width="24" height="24" viewBox="0 0 24 24" fill="none" xmlns="http://www.w3.org/2000/svg">
<path d="M3.5625 12C3.5625 11.2188 3.95312 10.5156 4.65625 10.125C5.32031 9.73438 6.14062 9.73438 6.84375 10.125C7.50781 10.5156 7.9375 11.2188 7.9375 12C7.9375 12.8203 7.50781 13.5234 6.84375 13.9141C6.14062 14.3047 5.32031 14.3047 4.65625 13.9141C3.95312 13.5234 3.5625 12.8203 3.5625 12ZM9.8125 12C9.8125 11.2188 10.2031 10.5156 10.9062 10.125C11.5703 9.73438 12.3906 9.73438 13.0938 10.125C13.7578 10.5156 14.1875 11.2188 14.1875 12C14.1875 12.8203 13.7578 13.5234 13.0938 13.9141C12.3906 14.3047 11.5703 14.3047 10.9062 13.9141C10.2031 13.5234 9.8125 12.8203 9.8125 12ZM18.25 9.8125C19.0312 9.8125 19.7344 10.2422 20.125 10.9062C20.5156 11.6094 20.5156 12.4297 20.125 13.0938C19.7344 13.7969 19.0312 14.1875 18.25 14.1875C17.4297 14.1875 16.7266 13.7969 16.3359 13.0938C15.9453 12.4297 15.9453 11.6094 16.3359 10.9062C16.7266 10.2422 17.4297 9.8125 18.25 9.8125Z" fill="black"/>
</svg>

<svg xmlns="http://www.w3.org/2000/svg" width="24" height="24" fill="currentColor" class="icon-ellipsis-h-solid" viewBox="0 0 24 24">
  <mask id="a" width="18" height="6" x="3" y="9" maskUnits="userSpaceOnUse" style="mask-type:alpha">
    <path d="M3.563 12c0-.781.39-1.484 1.093-1.875.664-.39 1.485-.39 2.188 0A2.18 2.18 0 0 1 7.937 12a2.2 2.2 0 0 1-1.093 1.914c-.703.39-1.524.39-2.188 0-.703-.39-1.093-1.094-1.093-1.914m6.25 0c0-.781.39-1.484 1.093-1.875.664-.39 1.485-.39 2.188 0A2.18 2.18 0 0 1 14.188 12a2.2 2.2 0 0 1-1.094 1.914c-.703.39-1.524.39-2.188 0-.703-.39-1.094-1.094-1.094-1.914m8.437-2.187c.781 0 1.484.43 1.875 1.093.39.703.39 1.524 0 2.188a2.1 2.1 0 0 1-1.875 1.094c-.82 0-1.523-.391-1.914-1.094-.39-.664-.39-1.485 0-2.188a2.2 2.2 0 0 1 1.914-1.094"/>
  </mask>
  <g mask="url(#a)">
    <path d="M0 0h24v24H0z"/>
  </g>
</svg>
